X:182
T:Lasses of Leeds. JJo.182, The
B:J.Johnson Choice Collection Vol 8 1758
Z:vmp.Simon Wilson 2013 www.village-music-project.org.uk
Z:Dance added by John Chambers 2017
M:2/4
L:1/8
%Q:1/2=80
K:G
D |\
{GA}B2BB | TB3g | (dB)(AG) | FAFD |\
{GA}B2BB | TB3g | BGAB | !fermata!G2 :|
d |\
^cBAG | FGAd | ^cBAG | {G}F3A |\
{Bc}d2dd | ^ceAg | fed^c | !D.C.!{c}d3 |]
%%begintext align
%%  The 1st Cu heys with the
%% 2d Wo. .| then heys with the
%% 2d Man ..| Lead down two Cu.
%% and cast up one .| and RIght
%% and Left at Top
%%endtext
